X: 13252
T: Fittie Boatman, The
R: jig
M: 6/8
K: Dmajor
|:e|AAA c2e|fee e2c|dBB Bcd|fee c2e|
AAA c2e|fee e2c|dBB fee|A3 A2:|
|:e|a3 a2f|ecc c2e|dBB Bcd|fee c2e|
a3 a2f|ecc c2e|dBB fee|A3 A2:|
|:e|AAA cee|fee ecc|dBB Bcd|fee c2e
AAA cee|fee ecc|dBB fee|A3 A2:|
|:e|add daa|fee caa|dBB Bcd|fee c2e
add daa|fee c2e|dBB fee|A3 A2:|

